!!!!SEGMENT: pl-kk--kk-i-382--097_rychling-wincenty-waclaw--sanctus.krn
!!!cenid: 18xx:1622
!!!COM: Rychling, Wincenty Wacław
!!!COM-rismid: pe50046026
!!!CDT: 1841/01/09-1896/01/11
!!!CNT: Polish
!!!OTL: Sanctus
!!!PDT:
!!!AGN: Sacred
!!!SMS-siglum: PL-Kk
!!!SMS-shelfmark: Kk.I.382
!!!SMS-shelfwork: 097 W
!!!SMS-variant:
!!!SMS-altvar:
!!!NIFC-rismid: 1001142980
!!!URL-scan: http://repozytorium.nifc.pl/skany/pl-kk-nut--i-382
!!!ONB-nifc: S/T1 0068, T2 0138, A/B1 0212, B2 0252
!!!AIN: 2 empty 2 tenor
!!!key:
**kern	**text	**kern	**text	**kern	**text	**kern	**text
*part4	*part4	*part3	*part3	*part2	*part2	*part1	*part1
*staff4	*staff4	*staff3	*staff3	*staff2	*staff2	*staff1	*staff1
*Iempty	*	*Iempty	*	*Itenor	*	*Itenor	*
*I"Bas IIgi	*	*I"Baſso Imo	*	*I"[Tenore II]	*	*I"Tenor I	*
*I'B2	*	*I'B1	*	*I'T2	*	*I'T1	*
*clefF4	*	*clefF4	*	*clefG2	*	*clefG2	*
*	*	*	*	*ITrd7c12	*	*ITrd7c12	*
*k[f#c#g#d#]	*	*k[f#c#g#d#]	*	*k[f#c#g#d#]	*	*k[f#c#g#d#]	*
*E:	*	*E:	*	*E:	*	*E:	*
*M4/4	*	*M4/4	*	*M4/4	*	*M4/4	*
*met(c)	*	*met(c)	*	*met(c)	*	*met(c)	*
=1	=1	=1	=1	=1	=1	=1	=1
*	*	*	*	*	*	*2\right	*
!!LO:TX:t=P:problem:all/middle or left:global
!!LO:TX:t=P:problem:all\middle or right:global
!LO:TX:a:B:i:t=Sanctus	!	!LO:TX:a:B:i:t=Sanctus	!	!LO:TX:a:B:i:t=Sanctus	!	!LO:TX:a:B:i:t=Sanctus	!
!LO:TX:a:i:t=p W&colon; Richlinga	!	!LO:TX:a:i:t=p&colon; W&colon; Richlinga	!	!LO:TX:a:i:t=p&colon; W&colon; Richlinga	!	!LO:TX:a:i:t=p&colon; W&colon; Richlinga	!
1E	Sanc-	1G#	Sanc-	(1G#	Sanc-	2B\	Sanc-
.	.	.	.	.	.	8B/L	.
.	.	.	.	.	.	8A#X/J	.
.	.	.	.	.	.	8B\L	-tus
.	.	.	.	.	.	8B#X\J	.
=2	=2	=2	=2	=2	=2	=2	=2
2.AA/	.	4G#\	.	4G#/	.	2c#\	Sanc-
.	.	4C#/	.	4C#/)	.	.	.
.	.	8F#\L	-tus	(8F#/L	-tus	2c#\	-tus
.	.	8E#X\J	.	8E#X/J	.	.	.
4A\	-tus	8F#\L	.	8F#/L	.	.	.
.	.	8G#\J	.	8G#/J)	.	.	.
=3	=3	=3	=3	=3	=3	=3	=3
1F#	Sanc-	1A	Sanc-	(1A	Sanc-	2c#\	Sanc-
.	.	.	.	.	.	8c#\L	.
.	.	.	.	.	.	8B#X\J	.
.	.	.	.	.	.	8c#\L	-tus
.	.	.	.	.	.	8d#\J	.
!	!	!	!	!	!	!LO:LB:g=original	!
=4	=4	=4	=4	=4	=4	=4	=4
2C#/	.	4A\	.	4A/	.	(2.e\	Sanc-
.	.	8G#\L	.	8G#/L	.	.	.
.	.	8F##X\J	.	8F##X/J)	.	.	.
*	*	*2\right	*	*	*	*	*
2C#/	-tus	2G#\	-tus	2G#/	-tus	.	.
.	.	.	.	.	.	8e\L	-tus
.	.	.	.	.	.	8d#\J)	.
!	!	!LO:LB:g=original	!	!LO:LB:g=original	!	!	!
=5	=5	=5	=5	=5	=5	=5	=5
4.E\	Do-	4.G#\	Do-	4.G#/	Do-	4.c#\	Do-
8D#\	.	8G#\	-mi-	8G#/	-mi-	8B\	-mi-
8C#/L	-mi-	2G#\	-nus	2G#/	-nus	2A#X/	-nus
8BB#X/J	.	.	.	.	.	.	.
8C#/L	-nus	.	.	.	.	.	.
8C##X/J	.	.	.	.	.	.	.
!LO:LB:g=original	!	!	!	!	!	!	!
=6	=6	=6	=6	=6	=6	=6	=6
*2\right	*	*	*	*	*	*	*
2D#\	De-	2F##X\	De-	2F##X/	De-	2A#X/	De-
2D#\	-us	2F##\	-us	2F##/	-us	4d#\	.
.	.	.	.	.	.	4A#/	-us
=7	=7	=7	=7	=7	=7	=7	=7
4r	.	2A#X\	Sa-	(2A#X/	Sa-	2f##X\	Sa-
4D#\	Sa-	.	.	.	.	.	.
4AA#X/	-ba-	8G#\L	.	8G#/L	.	2e#X\	-ba-
.	.	8E#X\J	.	8E#X/J)	.	.	.
(4C##X/	-oth	8A#\L	-ba-	8A#/L	-ba-	.	.
.	.	8G#\J	.	8G#/J	.	.	.
!	!	!	!	!	!	!LO:LB:g=original	!
=8	=8	=8	=8	=8	=8	=8	=8
4D#\)	.	4F##X\	-oth	4F##X/	-oth	4d#X\	-oth
4A#X\	Ple-	4r	.	4r	.	4r	.
!	!	!LO:N:vis=1	!	!	!	!	!
4F##X\	-ni	2r	.	2r	.	2r	.
4D#\	sunt	.	.	.	.	.	.
!	!	!LO:PB:g=original	!	!LO:PB:g=original	!	!	!
=9	=9	=9	=9	=9	=9	=9	=9
2AA#X/	coe-	4r	.	4r	.	4r	.
!	!	!	!	!LO:SIC:v:s=4e#	!	!	!
.	.	4E#X\	Ple-	4E/	Ple-	4c##X\	Ple-
4D#\	-li	4F##X\	-ni	4F##X/	-ni	4d#\	-ni
!	!	!	!	!	!	!LO:N:acc=n#	!
4D#\	et	4F##\	sunt	4F##/	sunt	4c#\	sunt
!LO:LB:g=original	!	!	!	!	!	!	!
=10	=10	=10	=10	=10	=10	=10	=10
(4D#\	ter-	2G#\	coe-	2G#/	coe-	2B\	coe-
8E\L	.	.	.	.	.	.	.
8F#\J)	.	.	.	.	.	.	.
4E\	-ra	4G#\	-li	4G#/	-li	4B\	-li
4Dn\	et	4G#\	et	4G#/	et	4B\	et
=11	=11	=11	=11	=11	=11	=11	=11
2.C#/	ter-	2A\	ter-	2A/	ter-	4.e\	ter-
.	.	.	.	.	.	8c#\	.
.	.	2E\	-ra	2E/	-ra	2A/	-ra
4Cn/	-ra	.	.	.	.	.	.
!	!	!	!	!	!	!LO:LB:g=original	!
=12	=12	=12	=12	=12	=12	=12	=12
2BB/	glo-	4.D#\	glo-	4.D#/	glo-	4.f#\	glo-
.	.	8F#\	-ri-	8F#/	-ri-	8d#\	.
4BB/	-ri-	(4D#\	-a	(4D#/	-a	4B\	-ri-
4BB#X/	-a	4F#\)	.	4F#/)	.	4A/	-a
!	!	!LO:LB:g=original	!	!LO:LB:g=original	!	!	!
=13	=13	=13	=13	=13	=13	=13	=13
2C#/	glo-	4F#\	glo-	4F#/	glo-	2G#/	glo-
.	.	8E\L	.	8E/L	.	.	.
.	.	8D#\J	.	8D#/J	.	.	.
4C#/	-ri-	4E\	-ri-	4E/	-ri-	4G#/	-ri-
4AA/	-a	4F#\	-a	4F#/	-a	4A/	-a
!LO:LB:g=original	!	!	!	!	!	!	!
=14	=14	=14	=14	=14	=14	=14	=14
4BB/	tu-	4D#\	tu-	4D#/	tu-	4F#/	tu-
4BB/	-a	4D#\	-a	4D#/	-a	4F#/	-a
!	!	!	!	!LO:N:vis=1	!	!	!
2r	.	2r	.	2r	.	4r	.
.	.	.	.	.	.	[4B\	Ho-
=15	=15	=15	=15	=15	=15	=15	=15
4r	.	4r	.	4r	.	1B]	-san-
4BB/	Ho-	4D#\	Ho-	4D#/	Ho-	.	.
(4C#/	-san-	4E\	-san-	(4E/	-san-	.	.
4D#/)	.	4F#\	.	4F#/)	.	.	.
!	!	!	!	!	!	!LO:LB:g=original	!
=16	=16	=16	=16	=16	=16	=16	=16
2E\	-na	2G#\	-na	2G#/	-na	4B\	.
.	.	.	.	.	.	4A#X/	.
!	!	!	!	!LO:N:vis=1	!	!	!
2r	.	2r	.	2r	.	4B\	-na
.	.	.	.	.	.	4B#X\	Ho-
!	!	!LO:LB:g=original	!	!LO:LB:g=original	!	!	!
=17	=17	=17	=17	=17	=17	=17	=17
4r	.	4r	.	4r	.	1c#	-san-
4C#/	Ho-	4E#X\	Ho-	4E#X/	Ho-	.	.
(4D#\	-san-	4F#\	-san-	4F#/	-san-	.	.
4E#X\)	.	4G#\	.	4G#/	.	.	.
!LO:LB:g=original	!	!	!	!	!	!	!
=18	=18	=18	=18	=18	=18	=18	=18
2F#\	-na	2A#X\	-na	2A#X/	-na	4c#\	.
.	.	.	.	.	.	4B#X\	.
!LO:N:vis=1	!	!	!	!LO:N:vis=1	!	!	!
2r	.	2r	.	2r	.	4c#\	-na
.	.	.	.	.	.	4c##X\	Ho-
=19	=19	=19	=19	=19	=19	=19	=19
1BB	Ho-	2F#\	Ho-	2F#/	Ho-	1d#	-san-
.	.	(4B\	-san-	4B\	-san-	.	.
.	.	4A\)	.	4A/	.	.	.
=20	=20	=20	=20	=20	=20	=20	=20
2C#/	-sanna	2G#\	-na	2G#/	-na	2e\	-na
4C#/	in	4E\	in	4E/	in	4G#/	in
!	!	!LO:TX:t=P:problem=wykreślone takty	!	!	!	!	!
!	!	!LO:LB:g=original	!	!	!	!	!
4C#/	ex-	4E\	ex-	4E/	ex-	4G#/	ex-
=21	=21	=21	=21	=21	=21	=21	=21
(2.AA/	-cel-	4E\	-cel-	4E/	-cel-	1c#	-cel-
.	.	4E#X\	.	4E#X/	.	.	.
.	.	4F#\	.	4F#/	.	.	.
4AA#X/)	.	4En\	.	4EnX/	.	.	.
!	!	!	!	!LO:LB:g=original	!	!LO:LB:g=original	!
=22	=22	=22	=22	=22	=22	=22	=22
2BB/	-sis	2D#\	-sis	2D#/	-sis	2F#/	-sis
4r	.	4r	.	4r	.	2B\	Ho-
4D#\	Ho-	4F#\	Ho-	4F#/	Ho-	.	.
!	!	!LO:LB:g=original	!	!	!	!	!
=23	=23	=23	=23	=23	=23	=23	=23
2E\	-san-	2G#\	-san-	2G#/	-san-	2B\	-san-
2E\	-na	2G#\	-na	2G#/	-na	2B\	-na
!LO:LB:g=original	!	!	!	!	!	!	!
=24	=24	=24	=24	=24	=24	=24	=24
2AA/	in	(4G#\	in	4G#/	in	2c#\	in
.	.	4C#/)	.	4C#/	.	.	.
2AA/	ex-	(4F#\	ex-	4F#/	ex-	2c#\	ex-
.	.	4E\)	.	4E/	.	.	.
=25	=25	=25	=25	=25	=25	=25	=25
1BB	-cel-	4E\	-cel-	4E/	-cel-	(2F#/	-cel-
.	.	8D#/L	.	8D#/L	.	.	.
.	.	8C#/J	.	8C#/J	.	.	.
.	.	8D#/L	.	8D#/L	.	2B\)	.
.	.	8F#/J	.	8F#/J	.	.	.
.	.	4A\	.	4A/	.	.	.
=26	=26	=26	=26	=26	=26	=26	=26
1E	-sis	1G#	-sis	1G#	-sis	1B;	-sis
!LO:PB:g=original	!	!LO:LB:g=original	!	!LO:LB:g=original	!	!LO:PB:g=original	!
==	==	==	==	==	==	=|	=|
*-	*-	*-	*-	*-	*-	*-	*-
!!!system-decoration: [(s1,s2,s3,s4)]
!!!ENC: Marta Chmielewska
!!!END: 2021-03-30
!!!ENC: Katarzyna Serwa
!!!END: 2021-03-06
